packages/core/src/browser/icons/remove-all-inverse.svg

<svg viewBox="0 0 16 16" xmlns="http://www.w3.org/2000/svg"><path d="m16 0v16h-16v-16z" fill="#252526" opacity="0"/><path d="m15 2v9h-1v-8h-9v-1zm-12 3h9v8h1v-9h-10zm-2 1h10v9h-10zm4.116 4.5-2.058 2.058.884.884 2.058-2.058 2.058 2.058.884-.884-2.058-2.058 2.058-2.058-.884-.884-2.058 2.058-2.058-2.058-.884.884z" fill="#c5c5c5"/></svg>

<!--Copyright (c) Microsoft Corporation. All rights reserved.-->
<!--Copyright (C) 2018 TypeFox and others.-->
<!--Licensed under the MIT License. See License.txt in the project root for license information.-->
<svg xmlns="http://www.w3.org/2000/svg" viewBox="0 0 16 16"><defs><style>.icon-canvas-transparent,.icon-vs-out{fill:#252526;}.icon-canvas-transparent{opacity:0;}.icon-vs-bg{fill:#c5c5c5;}</style></defs><title>remove-all</title><g id="canvas"><path class="icon-canvas-transparent" d="M16,0V16H0V0Z"/></g><g id="outline" style="display: none;"><path class="icon-vs-out" d="M16,1V12H14v2H12v2H0V5H2V3H4V1Z"/></g><g id="iconBg"><path class="icon-vs-bg" d="M15,2v9H14V3H5V2ZM3,5h9v8h1V4H3ZM1,6H11v9H1Zm4.116,4.5L3.058,12.558l.884.884L6,11.384l2.058,2.058.884-.884L6.884,10.5,8.942,8.442l-.884-.884L6,9.616,3.942,7.558l-.884.884Z"/></g></svg>
